svgs/sharp-solid/table-pivot.svg

<svg xmlns="http://www.w3.org/2000/svg" viewBox="0 0 512 512"><!--! Font Awesome Pro 6.6.0 by @fontawesome - https://fontawesome.com License - https://fontawesome.com/license (Commercial License) Copyright 2024 Fonticons, Inc. --><path d="M0 32l128 0 0 128L0 160 0 32zM160 160l0-128 352 0 0 448L0 480 0 192l128 0 0 224 320 0 0-256-288 0zm208 32l48 48 0 16-32 0 0 80 0 16-16 0-80 0 0 32-16 0-48-48 48-48 16 0 0 32 64 0 0-64-32 0 0-16 48-48z"/></svg>

<svg xmlns="http://www.w3.org/2000/svg" viewBox="0 0 512 512"><!--! Font Awesome Pro 6.5.2 by @fontawesome - https://fontawesome.com License - https://fontawesome.com/license (Commercial License) Copyright 2024 Fonticons, Inc. --><path d="M0 32H128V160H0V32zM160 160V32H512V480H0V192H128V416H448V160H160zm208 32l48 48v16H384v80 16H368 288v32H272l-48-48 48-48h16v32h64V256H320V240l48-48z"/></svg>
